X: 22837
T: Lark In The Blue Summer Sky, The
R: jig
M: 6/8
K: Cmajor
d/2c/2|BGG DGG|BdB c2 B/2c/2|ded def|A/2G/2F/2G/2A/2B/2 c2 d/2c/2|
!BGG DGG|BdB c2 B/2c/2|ded def|AGG G2||
!B/2c/2|def gag|fde f2 d|gdB cBc|dBG F2 d/2c/2|
! BGG DGG|BdB c2 B/2c/2|ded def|AGG G2||

